X:31
T:Julia Clifford's / Bill O'Malley's / Top of Maol
T:Julie's Polka Set #2
R:polka
M:C|
L:1/16
K:D
"Julia Clifford's"
D2 | EFG2 A2B2 | B=cA2 G2FG | A2d2 {de}d2c2 | d4 d3e |
f2d2 e2d2 | {cd}c2A2 A2d2 | {cd}c2A2 G2{EF}E2 |1 D4 D2 :|2 D4 D4 ||
|: f2d2 e2d2 | {cd}c2A2 A4 | f2af e2c2 | d4 d2e2 |
f2d2 e2d2 | {cd}c2A2 A2d2 | {cd}c2A2 G2E2 | D4 D4 :||
K:G
"Bill O'Malley's"
|:A3A G2E2 | c2d2 e3d | c2A2 B2G2 | A2E4G2 |
A2BA G2E2 | c2d2 e3d | c2A2 B2G2 |1 A4 A2E2 :|2 A4 A2Bd ||
|: e2a2 e3d | e2a2 e3d | ^c2d2 e2f2 | g4 a3g |
e2a2 e2d2 | e2a2 e2d2 | c2A2 B2G2 |1 A4 A2Bd :|2 A3A G2E2 ||
"The Top of Maol"
K:G
|:A4 A2Bd | e2d2 B2A2 | G4 G3A | Bcd2 B2G2 |
A4 A2Bd | e2d2 B2d2 | efge d2B2 |1 A4 A2G2 :|2 A4 A4 ||
|: e2a2 a2ga | b2a2 g4 | e2f2 g3a | g2e2 e2d2 |
e2a2 a2ga | b2a2g4 | efge d2B2 |1 A4 A4 :|2 A4 E2G2 ||
